li/scifi-batman.svg

<svg role="img" focusable="false" aria-hidden="true" xmlns="http://www.w3.org/2000/svg" viewBox="0 0 14 14" height="1em" width="1em">
  <path d="M 7,3 C 3.6768,3 1,4.8 1,7 1,9.2 3.6768,11 7,11 10.3232,11 13,9.2 13,7 13,4.8 10.3232,3 7,3 Z m 0,0.8 c 2.8188,0 5.2,1.4656 5.2,3.2 0,1.7344 -2.3812,3.2 -5.2,3.2 C 4.1812,10.2 1.8,8.7344 1.8,7 1.8,5.2656 4.1812,3.8 7,3.8 Z M 6.4125,4.45 C 6.4049,4.4508 6.3951,4.4621 6.3875,4.4625 L 6.275,5.8375 C 5.9666,7.3147 4.3343,6.248 5.2875,4.65 c -1.5556,0.4064 -2.7,1.3288 -2.7,2.35 0,0.2504 0.0732,0.4922 0.2,0.725 0.0212,0.0288 0.0377,0.0611 0.0625,0.0875 0.1144,0.1824 0.2566,0.3618 0.425,0.525 0.022,0.02 0.0397,0.0304 0.0625,0.05 0.0168,0.0156 0.0324,0.0348 0.05,0.05 0.274,0.2272 0.6099,0.4308 0.9875,0.6 -0.79,-1.232 0.5168,-1.506 1.15,-0.2 C 5.807,7.8087 6.718,8.2038 7,9.575 7.242,8.2466 8.2338,7.7659 8.475,8.8375 c 0.6248,-1.2884 1.8887,-1.0032 1.2375,0.15 0.6312,-0.2984 1.1378,-0.6939 1.425,-1.1375 0.1636,-0.2844 0.25,-0.5779 0.25,-0.8875 4e-4,-0.1068 -0.0062,-0.2206 -0.025,-0.325 C 11.1337,5.7719 10.0992,5.0253 8.75,4.6625 9.656,6.2505 8.0701,7.2699 7.7625,5.8375 L 7.65,4.4625 c -0.0096,-8e-4 -0.0279,8e-4 -0.0375,0 l -0.2875,0.35 -0.325,0 -0.325,0 L 6.4125,4.45 Z"/>
</svg>

<svg aria-hidden="true" xmlns="http://www.w3.org/2000/svg" viewBox="0 0 14 14" height="1em" width="1em">
  <path d="M7 3C3.677 3 1 4.8 1 7s2.677 4 6 4 6-1.8 6-4-2.677-4-6-4Zm0 .8c2.819 0 5.2 1.466 5.2 3.2 0 1.734-2.381 3.2-5.2 3.2-2.819 0-5.2-1.466-5.2-3.2 0-1.734 2.381-3.2 5.2-3.2Zm-.588.65c-.007 0-.017.012-.024.013l-.113 1.375c-.308 1.477-1.94.41-.988-1.188-1.555.406-2.7 1.329-2.7 2.35 0 .25.074.492.2.725.022.029.038.061.063.087.114.183.257.362.425.525.022.02.04.03.062.05.017.016.033.035.05.05.274.228.61.431.988.6-.79-1.231.517-1.505 1.15-.2.282-1.028 1.193-.633 1.475.738.242-1.328 1.234-1.81 1.475-.737.625-1.289 1.889-1.004 1.238.15.63-.299 1.137-.694 1.425-1.138a1.755 1.755 0 0 0 .225-1.212c-.23-.866-1.264-1.613-2.613-1.976.906 1.588-.68 2.608-.987 1.176L7.65 4.463h-.037l-.288.35h-.65l-.263-.363Z"/>
</svg>
